svg/blobs-icons/no-decorations/mailbox.svg

<svg xmlns="http://www.w3.org/2000/svg" xmlns:xlink="http://www.w3.org/1999/xlink" preserveAspectRatio="xMidYMid" width="215" height="216" viewBox="0 0 215 216"><defs><style>.cls-3{fill:#142a3b}.cls-6{fill:#0cb04a}.cls-7{fill:#000;opacity:.35}.cls-8{fill:#fbb713}.cls-9{fill:#000;opacity:.25}</style></defs><g id="group-53svg"><path d="M194.104 215.547S190.07 215.547 190.07 215.547C189.813 215.547 189.605 215.338 189.605 215.082V194.229C189.605 193.972 189.813 193.764 190.07 193.764H194.104C194.362 193.764 194.571 193.972 194.571 194.229v20.853C194.571 215.338 194.362 215.547 194.104 215.547z" id="path-1" class="cls-3" fill-rule="evenodd"/><path d="M26.056 215.547s-4.035.0-4.035.0C21.764 215.547 21.555 215.338 21.555 215.082V194.229C21.555 193.972 21.764 193.764 22.021 193.764h4.035C26.313 193.764 26.521 193.972 26.521 194.229v20.853C26.521 215.338 26.313 215.547 26.056 215.547z" id="path-2" class="cls-3" fill-rule="evenodd"/><path d="M110.08 215.547S106.046 215.547 106.046 215.547C105.789 215.547 105.58 215.338 105.58 215.082V194.229C105.58 193.972 105.789 193.764 106.046 193.764H110.08C110.337 193.764 110.546 193.972 110.546 194.229v20.853C110.546 215.338 110.337 215.547 110.08 215.547z" id="path-3" class="cls-3" fill-rule="evenodd"/><path d="M105.183 50.269s0 148.162.0 148.162 109.252.0 109.252.0S214.435 194.278 214.435 194.278 214.435 189.312 214.435 189.312s0-139.043.0-139.043c0-32.297-28.428-50.255-62.075-50.255L49.84.921c32.861.0 55.343 16.488 55.343 49.348z" id="path-4" class="cls-6" fill-rule="evenodd"/><path d="M105.183 50.269s0 148.162.0 148.162 109.252.0 109.252.0S214.435 194.278 214.435 194.278 214.435 189.312 214.435 189.312s0-139.043.0-139.043-109.252.0-109.252.0z" id="path-5" class="cls-7" fill-rule="evenodd"/><path d="M109.255 198.431s0-148.162.0-148.162c0-27.381-22.28-49.657-49.66-49.657H26.724C10.638 11.299.003 29.553.003 50.269V189.312S.003 194.278.003 194.278.003 198.431.003 198.431s109.252.0 109.252.0z" id="path-6" class="cls-8" fill-rule="evenodd"/><path d="M59.595.612s-23.341.0-23.341.0c27.381.0 49.66 22.276 49.66 49.657V198.431s23.341.0 23.341.0.0-148.162.0-148.162c0-27.381-22.28-49.657-49.66-49.657z" id="path-7" class="cls-9" fill-rule="evenodd"/><path d="M80.933 60.201s-42.676.0-42.676.0S59.595 78.493 59.595 78.493 80.933 60.201 80.933 60.201z" id="path-8" class="cls-3" fill-rule="evenodd"/><path d="M62.824 88.803C61.898 89.599 60.744 89.995 59.595 89.995S57.291 89.599 56.365 88.803L29.799 66.04s0 43.819.0 43.819 59.592.0 59.592.0.0-43.819.0-43.819S62.824 88.803 62.824 88.803z" id="path-9" class="cls-3" fill-rule="evenodd"/><path d="M94.655 114.826c0 2.745-2.221 4.965-4.96600000000001 4.965H20.165c-2.745.0-4.966-2.22-4.966-4.965V55.235C15.199 54.992 15.306 54.788 15.335 54.556 15.383 54.207 15.422 53.859 15.543 53.529 15.675 53.179 15.873 52.888 16.072 52.578 16.198 52.393 16.246 52.18 16.396 52.006 16.435 51.957 16.494 51.938 16.537 51.899 16.79 51.618 17.109 51.414 17.42 51.201 17.648 51.046 17.846 50.872 18.094 50.755 18.37 50.618 18.681 50.58 18.982 50.511 19.311 50.425 19.631 50.328 19.971 50.308 20.038 50.308 20.097 50.269 20.165 50.269H89.689C89.756 50.269 89.815 50.308 89.882 50.308 90.232 50.328 90.552 50.425 90.891 50.511 91.182 50.59 91.488 50.618 91.76 50.755 92.007 50.872 92.21 51.055 92.444 51.22 92.754 51.424 93.064 51.627 93.316 51.899 93.36 51.938 93.418 51.957 93.457 52.006 93.607 52.18 93.656 52.393 93.782 52.578 93.98 52.888 94.18 53.179 94.31 53.529 94.432 53.859 94.471 54.207 94.519 54.556 94.548 54.788 94.655 54.992 94.655 55.235v59.591z" id="path-10" class="cls-3" fill-rule="evenodd"/><path d="M125.047 50.269s59.592.0 59.592.0C187.384 50.269 189.605 52.491 189.605 55.235c0 2.746-2.221 4.966-4.96599999999998 4.966H125.047C122.301 60.201 120.081 57.981 120.081 55.235c0-2.744 2.22-4.966 4.96599999999999-4.966z" id="path-11" class="cls-3" fill-rule="evenodd"/><path d="M189.605 80.064s-69.524.0-69.524.0C117.336 80.064 115.115 82.286 115.115 85.03v59.591C115.115 147.364 117.336 149.587 120.081 149.587h69.524C192.349 149.587 194.571 147.364 194.571 144.621V85.03C194.571 82.286 192.349 80.064 189.605 80.064zM184.639 139.654s-59.592.0-59.592.0.0-49.658.0-49.658 59.592.0 59.592.0.0 49.658.0 49.658z" id="path-12" class="cls-3" fill-rule="evenodd"/></g></svg>

<svg xmlns="http://www.w3.org/2000/svg" xmlns:xlink="http://www.w3.org/1999/xlink" preserveAspectRatio="xMidYMid" width="215" height="216" viewBox="0 0 215 216">
  <defs>
    <style>

      .cls-3 {
        fill: #142a3b;
      }

      .cls-6 {
        fill: #0cb04a;
      }

      .cls-7 {
        fill: #000000;
        opacity: 0.35;
      }

      .cls-8 {
        fill: #fbb713;
      }

      .cls-9 {
        fill: #000000;
        opacity: 0.25;
      }
    </style>
  </defs>
  <g id="group-53svg">
    <path d="M194.104,215.547 C194.104,215.547 190.070,215.547 190.070,215.547 C189.813,215.547 189.605,215.338 189.605,215.082 C189.605,215.082 189.605,194.229 189.605,194.229 C189.605,193.972 189.813,193.764 190.070,193.764 C190.070,193.764 194.104,193.764 194.104,193.764 C194.362,193.764 194.571,193.972 194.571,194.229 C194.571,194.229 194.571,215.082 194.571,215.082 C194.571,215.338 194.362,215.547 194.104,215.547 Z" id="path-1" class="cls-3" fill-rule="evenodd"/>
    <path d="M26.056,215.547 C26.056,215.547 22.021,215.547 22.021,215.547 C21.764,215.547 21.555,215.338 21.555,215.082 C21.555,215.082 21.555,194.229 21.555,194.229 C21.555,193.972 21.764,193.764 22.021,193.764 C22.021,193.764 26.056,193.764 26.056,193.764 C26.313,193.764 26.521,193.972 26.521,194.229 C26.521,194.229 26.521,215.082 26.521,215.082 C26.521,215.338 26.313,215.547 26.056,215.547 Z" id="path-2" class="cls-3" fill-rule="evenodd"/>
    <path d="M110.080,215.547 C110.080,215.547 106.046,215.547 106.046,215.547 C105.789,215.547 105.580,215.338 105.580,215.082 C105.580,215.082 105.580,194.229 105.580,194.229 C105.580,193.972 105.789,193.764 106.046,193.764 C106.046,193.764 110.080,193.764 110.080,193.764 C110.337,193.764 110.546,193.972 110.546,194.229 C110.546,194.229 110.546,215.082 110.546,215.082 C110.546,215.338 110.337,215.547 110.080,215.547 Z" id="path-3" class="cls-3" fill-rule="evenodd"/>
    <path d="M105.183,50.269 C105.183,50.269 105.183,198.431 105.183,198.431 C105.183,198.431 214.435,198.431 214.435,198.431 C214.435,198.431 214.435,194.278 214.435,194.278 C214.435,194.278 214.435,189.312 214.435,189.312 C214.435,189.312 214.435,50.269 214.435,50.269 C214.435,17.972 186.007,0.014 152.360,0.014 C152.360,0.014 49.840,0.921 49.840,0.921 C82.701,0.921 105.183,17.409 105.183,50.269 Z" id="path-4" class="cls-6" fill-rule="evenodd"/>
    <path d="M105.183,50.269 C105.183,50.269 105.183,198.431 105.183,198.431 C105.183,198.431 214.435,198.431 214.435,198.431 C214.435,198.431 214.435,194.278 214.435,194.278 C214.435,194.278 214.435,189.312 214.435,189.312 C214.435,189.312 214.435,50.269 214.435,50.269 C214.435,50.269 105.183,50.269 105.183,50.269 Z" id="path-5" class="cls-7" fill-rule="evenodd"/>
    <path d="M109.255,198.431 C109.255,198.431 109.255,50.269 109.255,50.269 C109.255,22.888 86.975,0.612 59.595,0.612 C59.595,0.612 26.724,0.612 26.724,0.612 C10.638,11.299 0.003,29.553 0.003,50.269 C0.003,50.269 0.003,189.312 0.003,189.312 C0.003,189.312 0.003,194.278 0.003,194.278 C0.003,194.278 0.003,198.431 0.003,198.431 C0.003,198.431 109.255,198.431 109.255,198.431 Z" id="path-6" class="cls-8" fill-rule="evenodd"/>
    <path d="M59.595,0.612 C59.595,0.612 36.254,0.612 36.254,0.612 C63.635,0.612 85.914,22.888 85.914,50.269 C85.914,50.269 85.914,198.431 85.914,198.431 C85.914,198.431 109.255,198.431 109.255,198.431 C109.255,198.431 109.255,50.269 109.255,50.269 C109.255,22.888 86.975,0.612 59.595,0.612 Z" id="path-7" class="cls-9" fill-rule="evenodd"/>
    <path d="M80.933,60.201 C80.933,60.201 38.257,60.201 38.257,60.201 C38.257,60.201 59.595,78.493 59.595,78.493 C59.595,78.493 80.933,60.201 80.933,60.201 Z" id="path-8" class="cls-3" fill-rule="evenodd"/>
    <path d="M62.824,88.803 C61.898,89.599 60.744,89.995 59.595,89.995 C58.446,89.995 57.291,89.599 56.365,88.803 C56.365,88.803 29.799,66.040 29.799,66.040 C29.799,66.040 29.799,109.859 29.799,109.859 C29.799,109.859 89.391,109.859 89.391,109.859 C89.391,109.859 89.391,66.040 89.391,66.040 C89.391,66.040 62.824,88.803 62.824,88.803 Z" id="path-9" class="cls-3" fill-rule="evenodd"/>
    <path d="M94.655,114.826 C94.655,117.571 92.434,119.791 89.689,119.791 C89.689,119.791 20.165,119.791 20.165,119.791 C17.420,119.791 15.199,117.571 15.199,114.826 C15.199,114.826 15.199,55.235 15.199,55.235 C15.199,54.992 15.306,54.788 15.335,54.556 C15.383,54.207 15.422,53.859 15.543,53.529 C15.675,53.179 15.873,52.888 16.072,52.578 C16.198,52.393 16.246,52.180 16.396,52.006 C16.435,51.957 16.494,51.938 16.537,51.899 C16.790,51.618 17.109,51.414 17.420,51.201 C17.648,51.046 17.846,50.872 18.094,50.755 C18.370,50.618 18.681,50.580 18.982,50.511 C19.311,50.425 19.631,50.328 19.971,50.308 C20.038,50.308 20.097,50.269 20.165,50.269 C20.165,50.269 89.689,50.269 89.689,50.269 C89.756,50.269 89.815,50.308 89.882,50.308 C90.232,50.328 90.552,50.425 90.891,50.511 C91.182,50.590 91.488,50.618 91.760,50.755 C92.007,50.872 92.210,51.055 92.444,51.220 C92.754,51.424 93.064,51.627 93.316,51.899 C93.360,51.938 93.418,51.957 93.457,52.006 C93.607,52.180 93.656,52.393 93.782,52.578 C93.980,52.888 94.180,53.179 94.310,53.529 C94.432,53.859 94.471,54.207 94.519,54.556 C94.548,54.788 94.655,54.992 94.655,55.235 C94.655,55.235 94.655,114.826 94.655,114.826 Z" id="path-10" class="cls-3" fill-rule="evenodd"/>
    <path d="M125.047,50.269 C125.047,50.269 184.639,50.269 184.639,50.269 C187.384,50.269 189.605,52.491 189.605,55.235 C189.605,57.981 187.384,60.201 184.639,60.201 C184.639,60.201 125.047,60.201 125.047,60.201 C122.301,60.201 120.081,57.981 120.081,55.235 C120.081,52.491 122.301,50.269 125.047,50.269 Z" id="path-11" class="cls-3" fill-rule="evenodd"/>
    <path d="M189.605,80.064 C189.605,80.064 120.081,80.064 120.081,80.064 C117.336,80.064 115.115,82.286 115.115,85.030 C115.115,85.030 115.115,144.621 115.115,144.621 C115.115,147.364 117.336,149.587 120.081,149.587 C120.081,149.587 189.605,149.587 189.605,149.587 C192.349,149.587 194.571,147.364 194.571,144.621 C194.571,144.621 194.571,85.030 194.571,85.030 C194.571,82.286 192.349,80.064 189.605,80.064 ZM184.639,139.654 C184.639,139.654 125.047,139.654 125.047,139.654 C125.047,139.654 125.047,89.996 125.047,89.996 C125.047,89.996 184.639,89.996 184.639,89.996 C184.639,89.996 184.639,139.654 184.639,139.654 Z" id="path-12" class="cls-3" fill-rule="evenodd"/>
  </g>
</svg>
